lcapWeb/src/assets/images/logo-icon.svg

<?xml version="1.0" encoding="UTF-8"?>
<svg width="91px" height="67px" viewBox="0 0 91 67" version="1.1" xmlns="http://www.w3.org/2000/svg" xmlns:xlink="http://www.w3.org/1999/xlink">
    <!-- Generator: Sketch 57.1 (83088) - https://sketch.com -->
    <title>Shape</title>
    <desc>Created with Sketch.</desc>
    <g id="页面-1" stroke="none" stroke-width="1" fill="none" fill-rule="evenodd" fill-opacity="0.0599999987">
        <g id="算法管理-算法类型-列表-空" transform="translate(-736.000000, -258.000000)" fill="#6E7F90">
            <g id="Group-2" transform="translate(217.000000, 115.000000)">
                <g id="告警筛选">
                    <g id="title">
                        <g id="tab切换">
                            <g id="右边" transform="translate(439.000000, 143.000000)">
                                <g id="table">
                                    <g id="Shape" transform="translate(80.000000, 0.000000)">
                                        <path d="M70.0857447,66.5714286 C67.4873639,66.5714286 64.4191299,65.9138637 61.8827745,64.7376074 C59.3160145,63.552608 57.4538314,62.1598067 55.3938154,59.885779 C54.2801946,58.6538107 54.1194554,57.6638035 54.1194554,57.3632837 C54.1194554,55.1075556 55.7529956,53.702148 57.5900442,53.702148 C59.3839182,53.702148 60.4355134,55.0860028 60.4355134,55.0860028 C62.0502027,57.2921187 65.9780773,59.5750929 70.135203,59.5750929 C78.3247951,59.5750929 83.1623767,52.8861901 83.1623767,46.6002847 C83.1623767,40.079128 77.8922384,33.6228332 70.2156739,33.6228332 C64.5800718,33.6228332 61.1285366,37.4663548 60.5780099,37.9504803 C58.6789358,39.6228585 36.6882703,58.4923678 36.2054446,58.9022783 C32.8343804,61.8029649 28.2444953,66.5035168 19.7946394,66.5035168 C14.8088859,66.5035168 9.82313236,64.4930031 6.11133343,60.9741973 C2.16501335,57.2481997 -1.84741111e-13,52.179013 -1.84741111e-13,46.7119121 C-1.84741111e-13,39.2072547 3.51356065,34.5097528 6.45774367,31.8817299 C10.1385299,28.5934989 14.981787,26.7037624 19.7571403,26.7037624 C24.8112029,26.7037624 29.3826425,28.4377491 33.5766591,32.1891628 C33.5766591,32.1891628 33.9415148,32.5614576 34.0896868,32.7100909 C34.7332517,33.3837187 35.0614192,34.211673 35.0614192,35.0833429 C35.0614192,36.9387169 33.55193,38.3937368 31.7085978,38.4496522 C30.5576806,38.4903179 29.5555436,37.8103869 29.5555436,37.8103869 C27.0191882,35.3997223 23.8400786,33.6098202 19.7944367,33.6098202 C13.5835787,33.6098202 6.87246302,38.5677861 6.87246302,46.599878 C6.87246302,53.7639599 12.6683989,59.5907492 19.7944367,59.5907492 C25.7948945,59.5907492 28.6833357,56.3362707 33.0755906,51.3966043 C33.8983402,50.4848786 34.7395354,49.5292339 35.6733633,48.5111674 C37.0034652,47.0840035 40.913097,43.0168204 43.2510114,40.584603 C43.8260646,39.9821402 44.3151739,39.4675154 44.6615842,39.1104703 C52.1342349,31.3109864 54.6330912,28.8041474 54.6330912,28.8041474 C58.3075938,24.6027674 59.0867634,19.2540037 56.9343173,14.49164 C54.8122759,9.8067444 50.1356363,6.84709249 45.0081971,6.84709249 C37.7212175,6.84709249 33.3911908,12.3076869 32.425742,17.4919576 C31.9684561,18.9685303 30.6071389,19.9865969 29.0982577,19.9865969 C27.2048592,19.9865969 25.5846971,18.5683795 25.5846971,16.6633933 C25.5846971,16.0369377 25.6955727,15.4625343 25.6955727,15.4625343 C26.5868341,11.2524111 28.8132649,7.57907565 32.2528409,4.67208586 C35.7043761,1.76834932 40.2081146,2.84217094e-14 45.0081971,2.84217094e-14 C50.5197483,2.84217094e-14 55.5732028,2.20550593 59.173518,5.82353603 C63.7881322,10.4525162 65.0004667,16.3622636 65.0004667,19.3810842 C65.0004667,23.6877884 64.2397425,25.6358803 63.3738182,27.8541959 L65.0004667,27.3267614 C66.7081942,26.8432458 68.5020682,26.6321907 70.2959422,26.6321907 C75.3311539,26.6321907 80.2236665,28.6762537 83.8862099,32.0984783 C85.7972431,33.876384 87.2947732,35.9826656 88.3398822,38.3502244 C89.4535029,40.8879694 90.1274725,43.6615756 90.1274725,46.5996747 C90.1274725,51.9860541 88.0117147,56.9688261 84.3499821,60.6484648 C80.5891303,64.421228 75.652835,66.5714286 70.0857447,66.5714286 Z"></path>
                                    </g>
                                </g>
                            </g>
                        </g>
                    </g>
                </g>
            </g>
        </g>
    </g>
</svg>

<svg width="91" height="67" xmlns="http://www.w3.org/2000/svg"><path d="M70.086 66.571c-2.599 0-5.667-.657-8.203-1.833-2.567-1.185-4.43-2.578-6.49-4.852-1.113-1.232-1.274-2.222-1.274-2.523 0-2.255 1.634-3.66 3.471-3.66 1.794 0 2.846 1.383 2.846 1.383 1.614 2.206 5.542 4.49 9.7 4.49 8.189 0 13.026-6.69 13.026-12.976 0-6.52-5.27-12.977-12.946-12.977-5.636 0-9.087 3.843-9.638 4.327-1.9 1.673-23.89 20.542-24.373 20.952-3.37 2.901-7.96 7.602-16.41 7.602-4.986 0-9.972-2.011-13.684-5.53C2.165 57.248 0 52.18 0 46.712c0-7.505 3.514-12.202 6.458-14.83 3.68-3.289 8.524-5.178 13.3-5.178 5.053 0 9.625 1.734 13.819 5.485l.513.521c.643.674.971 1.502.971 2.373 0 1.856-1.51 3.31-3.352 3.367-1.151.04-2.153-.64-2.153-.64-2.537-2.41-5.716-4.2-9.762-4.2-6.21 0-12.922 4.958-12.922 12.99 0 7.164 5.796 12.99 12.922 12.99 6 0 8.89-3.254 13.282-8.193.822-.912 1.664-1.868 2.597-2.886 1.33-1.427 5.24-5.494 7.578-7.926.575-.603 1.064-1.117 1.41-1.475 7.473-7.799 9.972-10.306 9.972-10.306 3.675-4.201 4.454-9.55 2.301-14.312-2.122-4.685-6.798-7.645-11.926-7.645-7.287 0-11.617 5.46-12.582 10.645-.458 1.477-1.819 2.495-3.328 2.495-1.893 0-3.513-1.419-3.513-3.324 0-.626.11-1.2.11-1.2.892-4.21 3.118-7.884 6.558-10.79C35.704 1.767 40.208 0 45.008 0c5.512 0 10.565 2.206 14.166 5.824C63.788 10.453 65 16.362 65 19.38c0 4.307-.76 6.255-1.626 8.473L65 27.327c1.708-.484 3.502-.695 5.296-.695 5.035 0 9.928 2.044 13.59 5.466a18.948 18.948 0 0 1 4.454 6.252c1.114 2.538 1.787 5.312 1.787 8.25 0 5.386-2.115 10.369-5.777 14.048-3.76 3.773-8.697 5.923-14.264 5.923Z" fill="#6E7F90" fill-rule="evenodd" fill-opacity=".06"/></svg>
